brandFactory_export/2.Regular/Bebe_chupete_2Regular.svg

<?xml version="1.0" encoding="UTF-8"?>
<svg width="24px" height="24px" viewBox="0 0 24 24" version="1.1" xmlns="http://www.w3.org/2000/svg" xmlns:xlink="http://www.w3.org/1999/xlink">
    <title>2.Regular/Bebe_chupete_2Regular</title>
    <g id="Symbols" stroke="none" stroke-width="1" fill="none" fill-rule="evenodd">
        <g id="2.Regular/Bebe_chupete_2Regular" fill="#5CB615" fill-rule="nonzero">
            <path d="M15.7848739,14.097479 C15.4722689,14.410084 15.092437,14.6554622 14.6756303,14.8638655 C14.4672269,14.9680672 14.2588235,15.0689076 14.0268908,15.1462185 C13.4991597,15.3176471 12.9042017,15.4151261 12.2621849,15.4386555 C12.1512605,15.4453782 12.0537815,15.4621849 11.9394958,15.4621849 L5.83529412,15.4621849 C5.72436975,15.4621849 5.62352941,15.4420168 5.51260504,15.4386555 C4.87058824,15.4117647 4.27563025,15.3176471 3.74789916,15.1462185 C3.51596639,15.0689076 3.30756303,14.9680672 3.09915966,14.8638655 C2.68235294,14.6554622 2.30252101,14.4134454 1.98991597,14.097479 C1.68403361,13.6907563 1.52268908,13.1294118 1.52268908,12.4 C1.52268908,11.6739496 1.68739496,11.112605 1.99327731,10.6991597 C2.71260504,9.97310924 3.73781513,9.5394958 4.96806723,9.39831933 C4.92773109,9.67058824 4.90084034,9.94957983 4.90084034,10.2521008 C4.90084034,11.5226891 5.27058824,12.5176471 5.99663866,13.2134454 C6.69243697,13.8789916 7.66722689,14.2184874 8.8907563,14.2184874 C10.1176471,14.2184874 11.0890756,13.8789916 11.7848739,13.2134454 C12.5109244,12.5176471 12.8773109,11.5226891 12.8773109,10.2521008 C12.8773109,9.95294118 12.8537815,9.67058824 12.8134454,9.39831933 C14.0436975,9.54285714 15.0655462,9.97310924 15.7882353,10.6991597 C16.0941176,11.1092437 16.2588235,11.6739496 16.2588235,12.4 C16.2521008,13.1294118 16.0907563,13.6907563 15.7848739,14.097479 Z M6.39663866,16.9478992 L11.3781513,16.9478992 L11.3747899,17.2537815 C11.3680672,18.1243697 11.0319328,19.5764706 8.88739496,19.5764706 C6.74285714,19.5764706 6.40672269,18.1243697 6.4,17.2537815 L6.39663866,16.9478992 L6.39663866,16.9478992 Z M13.8386555,17.5327731 C13.8252101,18.9310924 13.3176471,22.1747899 8.88739496,22.1747899 C4.45378151,22.1747899 3.94957983,18.9310924 3.93613445,17.5327731 L3.92268908,16.7361345 C4.23529412,16.8067227 4.56134454,16.8605042 4.89747899,16.8941176 L4.90420168,17.2672269 C4.9210084,19.0151261 5.97310924,21.0521008 8.88403361,21.0554622 C11.7983193,21.0554622 12.8504202,19.0184874 12.8638655,17.2672269 L12.8705882,16.8941176 C13.2067227,16.8605042 13.5327731,16.8067227 13.8453782,16.7361345 L13.8386555,17.5327731 Z M6.29915966,2.35630252 C6.87731092,1.79831933 7.7512605,1.51596639 8.88739496,1.51596639 C10.0268908,1.51596639 10.897479,1.80168067 11.4756303,2.35630252 C12.0739496,2.93445378 12.3798319,3.82521008 12.3798319,5.00504202 C12.3798319,5.96302521 12.1680672,6.71932773 11.7714286,7.28067227 C11.6806723,7.40840336 11.5865546,7.5394958 11.4756303,7.64705882 C11.4756303,7.64705882 11.4252101,7.68403361 11.3613445,7.74117647 C11.1563025,7.84537815 10.994958,8.02689076 10.9546218,8.26890756 C10.9277311,8.43697479 10.9714286,8.59831933 11.0453782,8.73613445 C11.0588235,8.78655462 11.0756303,8.82689076 11.0890756,8.85378151 C11.189916,9.0487395 11.2033613,9.09243697 11.2638655,9.33109244 C11.3344538,9.60672269 11.3781513,9.90588235 11.3781513,10.2487395 C11.3781513,11.102521 11.1630252,11.7378151 10.7428571,12.1411765 C10.3327731,12.5344538 9.70756303,12.7327731 8.88403361,12.7327731 C8.0605042,12.7327731 7.43529412,12.5344538 7.02857143,12.1411765 C6.60504202,11.7378151 6.38991597,11.0991597 6.38991597,10.2487395 C6.38991597,9.90588235 6.43697479,9.60336134 6.50756303,9.33109244 C6.56806723,9.09243697 6.58487395,9.0487395 6.68235294,8.85378151 C6.69915966,8.82689076 6.71260504,8.78655462 6.72941176,8.73613445 C6.80672269,8.59831933 6.84705882,8.43697479 6.82016807,8.26890756 C6.77983193,8.02689076 6.61848739,7.84537815 6.41344538,7.74117647 C6.34957983,7.68403361 6.29915966,7.64705882 6.29915966,7.64705882 C6.18487395,7.5394958 6.09411765,7.40840336 6.00336134,7.28067227 C5.60672269,6.71932773 5.39495798,5.96302521 5.39495798,5.00504202 C5.39495798,3.82521008 5.69747899,2.93445378 6.29915966,2.35630252 L6.29915966,2.35630252 Z M16.8907563,9.71092437 C16.8739496,9.6907563 16.8605042,9.67058824 16.8403361,9.65042017 C16.7731092,9.5697479 16.7159664,9.52605042 16.6386555,9.45546218 C16.5781513,9.39495798 16.5109244,9.33109244 16.4336134,9.27731092 C15.5529412,8.55798319 14.4302521,8.10420168 13.1327731,7.93277311 C13.6168067,7.15294118 13.8689076,6.17478992 13.8689076,5.00504202 C13.8689076,3.40840336 13.4117647,2.15798319 12.5109244,1.2907563 C11.6436975,0.453781513 10.4235294,0.0302521008 8.88067227,0.0302521008 C7.33781513,0.0302521008 6.11764706,0.453781513 5.25378151,1.2907563 C4.35294118,2.15798319 3.89579832,3.40840336 3.89579832,5.00504202 C3.89579832,6.17478992 4.14453782,7.15294118 4.63193277,7.93277311 C3.33445378,8.10420168 2.21512605,8.55798319 1.33109244,9.27731092 C1.25378151,9.32773109 1.18655462,9.39495798 1.12605042,9.45546218 C1.05210084,9.52605042 0.994957983,9.5697479 0.927731092,9.65042017 C0.907563025,9.67058824 0.897478992,9.6907563 0.877310924,9.71092437 C0.322689076,10.389916 0.0235294118,11.2840336 0.0235294118,12.4 C0.0235294118,13.5159664 0.322689076,14.410084 0.877310924,15.0890756 L0.927731092,15.1495798 C1.05546218,15.2806723 1.18991597,15.405042 1.33109244,15.5193277 C1.6605042,15.7915966 2.02352941,16.0235294 2.41680672,16.2184874 L2.43697479,17.5462185 C2.4605042,20.5008403 4.16806723,23.6537815 8.88067227,23.6537815 C13.5932773,23.6537815 15.3008403,20.5008403 15.3243697,17.5462185 L15.3445378,16.2184874 C15.7378151,16.0201681 16.1008403,15.7882353 16.4302521,15.5193277 C16.5714286,15.405042 16.7058824,15.2773109 16.8336134,15.1495798 L16.8840336,15.0890756 C17.4420168,14.410084 17.7412048,13.5159664 17.7412048,12.4 C17.7445378,11.2840336 17.4487395,10.389916 16.8907563,9.71092437 Z" id="Bebe_chupete_2Regular"></path>
        </g>
    </g>
</svg>

<svg width="24" height="24" viewBox="0 0 24 24" xmlns="http://www.w3.org/2000/svg"><path d="M15.785 14.097c-.313.313-.693.558-1.11.767a4.907 4.907 0 01-.648.282 6.502 6.502 0 01-1.765.293c-.11.006-.208.023-.323.023H5.835c-.11 0-.211-.02-.322-.023a6.634 6.634 0 01-1.765-.293 4.907 4.907 0 01-.649-.282c-.417-.209-.796-.45-1.11-.767-.305-.406-.466-.968-.466-1.697 0-.726.164-1.287.47-1.7.72-.727 1.745-1.16 2.975-1.302-.04.273-.067.552-.067.854 0 1.27.37 2.266 1.096 2.961.695.666 1.67 1.005 2.894 1.005 1.227 0 2.198-.339 2.894-1.005.726-.695 1.092-1.69 1.092-2.96 0-.3-.023-.582-.064-.855 1.23.145 2.253.575 2.975 1.301.306.41.47.975.47 1.701-.006.73-.167 1.29-.473 1.697zm-9.388 2.85h4.981l-.003.307c-.007.87-.343 2.322-2.488 2.322-2.144 0-2.48-1.452-2.487-2.322l-.003-.306zm7.442.586c-.014 1.398-.521 4.642-4.952 4.642-4.433 0-4.937-3.244-4.95-4.642l-.014-.797c.312.07.638.125.974.158l.007.373c.017 1.748 1.07 3.785 3.98 3.788 2.914 0 3.966-2.037 3.98-3.788l.007-.373a8.08 8.08 0 00.974-.158l-.006.797zM6.299 2.356c.578-.558 1.452-.84 2.588-.84 1.14 0 2.01.286 2.589.84.598.578.904 1.47.904 2.649 0 .958-.212 1.714-.609 2.276-.09.127-.184.258-.295.366 0 0-.05.037-.115.094a.73.73 0 00-.406.528.74.74 0 00.09.467c.014.05.03.09.044.118.1.195.114.238.175.477.07.276.114.575.114.918 0 .854-.215 1.489-.635 1.892-.41.393-1.035.592-1.859.592-.823 0-1.449-.199-1.855-.592-.424-.403-.64-1.042-.64-1.892 0-.343.048-.646.119-.918.06-.239.077-.282.174-.477a.604.604 0 00.047-.118.719.719 0 00.091-.467.73.73 0 00-.407-.528 1.69 1.69 0 00-.114-.094c-.114-.108-.205-.239-.296-.366-.396-.562-.608-1.318-.608-2.276 0-1.18.302-2.07.904-2.649zm10.592 7.355c-.017-.02-.03-.04-.05-.06-.068-.081-.125-.125-.202-.196a1.53 1.53 0 00-.205-.178c-.881-.719-2.004-1.173-3.301-1.344.484-.78.736-1.758.736-2.928 0-1.597-.457-2.847-1.358-3.714C11.644.454 10.424.03 8.88.03c-1.543 0-2.763.423-3.627 1.26-.901.867-1.358 2.117-1.358 3.714 0 1.17.249 2.148.736 2.928-1.298.171-2.417.625-3.3 1.344-.078.05-.145.118-.206.178-.074.071-.131.115-.198.195-.02.02-.03.04-.05.06-.555.68-.854 1.574-.854 2.69 0 1.116.299 2.01.853 2.69l.05.06c.128.13.263.255.404.37a5.6 5.6 0 001.086.698l.02 1.328c.024 2.955 1.731 6.108 6.444 6.108 4.712 0 6.42-3.153 6.443-6.108l.02-1.328c.394-.198.757-.43 1.086-.699.141-.114.276-.242.404-.37l.05-.06c.558-.679.857-1.573.857-2.689.004-1.116-.292-2.01-.85-2.69z" fill="#5CB615" fill-rule="nonzero"/></svg>
